svg/solid/bxs-detail.svg

<svg xmlns="http://www.w3.org/2000/svg" width="24" height="24" viewBox="0 0 24 24"><path d="M20,3H4C2.896,3,2,3.896,2,5v14c0,1.104,0.896,2,2,2h16c1.104,0,2-0.896,2-2V5C22,3.896,21.104,3,20,3z M11,17H5v-2h6V17z M19,13H5v-2h14V13z M19,9H5V7h14V9z"/></svg>

<svg xmlns="http://www.w3.org/2000/svg" width="24" height="24"><path d="M20 3H4a2 2 0 0 0-2 2v14a2 2 0 0 0 2 2h16a2 2 0 0 0 2-2V5a2 2 0 0 0-2-2zm-9 14H5v-2h6v2zm8-4H5v-2h14v2zm0-4H5V7h14v2z"/></svg>
